X: 33328
T: Quay Pit, The
R: reel
M: 4/4
K: Bminor
FB~B2 FB^DB|cAFA EA (3cBA|FB~B2 GB~B2|c=dec dBcA|
FB~B2 fB~B2|cAFA EA (3cBA|dA~A2 eAfA|FBBA B3A|
FB~B2 fB^df|cAFA EFAc|~B3A F=d~d2|cAec dcde|
fB~B2 ABDB|cAFA EA (3cBA|dA~A2 eAfA|FBBA B3c||
d2 (3efg abba|geed eAce|d2 (3efg ad~d2|bdc'd gece|
d2 (3efg abba|geed eAcA|dA~A2 eAfA|FBBA B3c|
d2 (3efg abba|geed eAce|d2Bd Ad~d2|Bdcd edce|
d2 (3efg abba|geed eAcA|dA~A2 eAfA|FBBA B3f||
|:ge~e2 ge~e2|fd~d2 BdFd|EeeB dcBc|DddA (3Bcd ef|
ge~e2 GeBe|fd~d2 FABA|dA~A2 eAfA|FBBA B3f:|
|:gabg agfd|cF~F2 fFcF|~F2fF eBEc|DddA (3Bcd ef|
gabg agfd|cF~F2 fABA|dA~A2 eAfA|1 FBBA B3f:|2 FBBA B3A||

